X: 23388
T: Lennie And Susie's
R: reel
M: 4/4
K: Amajor
A3A ABcA|d3e cBAF|EAAE ABce|f3f ecBA|
f3f fcBA|c3c cBAF|EAAA ABcA|1 aAgA f3e:|2 [M:2/4] aAgA ]|
|:[M:4/4] f3f- fedc|B2AB c2BA|EAAE ABce|[M:2/4] aAgA|
[M:4/4] f3f- fedc|1 B2AB c2BA|EGAB BABc|ecef ecBA:|2 B2AB c2BA||
|:dead eace|acea BABc|BeaB efce|fcef ecBA|
[1 dead eace|acea BABc|BeaB efce|fcef ecBA:|
[2 dead eace|acea BABc|BABc d2f2|ec (3ccc BA (3AAA||

